Catalina-light/apps/scalable/dropbox.svg

<?xml version="1.0" encoding="UTF-8" standalone="no"?>
<!-- Created with Inkscape (http://www.inkscape.org/) -->

<svg
   xmlns:dc="http://purl.org/dc/elements/1.1/"
   xmlns:cc="http://creativecommons.org/ns#"
   xmlns:rdf="http://www.w3.org/1999/02/22-rdf-syntax-ns#"
   xmlns:svg="http://www.w3.org/2000/svg"
   xmlns="http://www.w3.org/2000/svg"
   xmlns:xlink="http://www.w3.org/1999/xlink"
   xmlns:sodipodi="http://sodipodi.sourceforge.net/DTD/sodipodi-0.dtd"
   xmlns:inkscape="http://www.inkscape.org/namespaces/inkscape"
   version="1.1"
   id="svg2"
   width="170.66667"
   height="170.66667"
   viewBox="0 0 170.66667 170.66667"
   sodipodi:docname="dropbox.svg"
   inkscape:version="0.92.2 2405546, 2018-03-11">
  <metadata
     id="metadata8">
    <rdf:RDF>
      <cc:Work
         rdf:about="">
        <dc:format>image/svg+xml</dc:format>
        <dc:type
           rdf:resource="http://purl.org/dc/dcmitype/StillImage" />
        <dc:title></dc:title>
      </cc:Work>
    </rdf:RDF>
  </metadata>
  <defs
     id="defs6">
    <linearGradient
       inkscape:collect="always"
       id="linearGradient1399">
      <stop
         style="stop-color:#50acda;stop-opacity:1"
         offset="0"
         id="stop1395" />
      <stop
         style="stop-color:#1158de;stop-opacity:1"
         offset="1"
         id="stop1397" />
    </linearGradient>
    <linearGradient
       inkscape:collect="always"
       id="linearGradient1248">
      <stop
         style="stop-color:#a6a7a7;stop-opacity:1"
         offset="0"
         id="stop1268" />
      <stop
         style="stop-color:#686760;stop-opacity:0"
         offset="1"
         id="stop1270" />
    </linearGradient>
    <linearGradient
       id="linearGradient1248-7"
       inkscape:collect="always">
      <stop
         id="stop1261"
         offset="0"
         style="stop-color:#acafac;stop-opacity:1;" />
      <stop
         id="stop1263"
         offset="1"
         style="stop-color:#686760;stop-opacity:1" />
    </linearGradient>
    <linearGradient
       inkscape:collect="always"
       xlink:href="#linearGradient1248-7"
       id="linearGradient1250"
       x1="97.103302"
       y1="147.87509"
       x2="98.018387"
       y2="154.38356"
       gradientUnits="userSpaceOnUse" />
    <linearGradient
       inkscape:collect="always"
       xlink:href="#linearGradient1248"
       id="linearGradient1273"
       gradientUnits="userSpaceOnUse"
       x1="45.035503"
       y1="158.36098"
       x2="96.93364"
       y2="153.6604" />
    <linearGradient
       inkscape:collect="always"
       xlink:href="#linearGradient1248"
       id="linearGradient1281"
       gradientUnits="userSpaceOnUse"
       x1="137.23889"
       y1="132.68866"
       x2="96.93364"
       y2="153.6604" />
    <filter
       inkscape:collect="always"
       style="color-interpolation-filters:sRGB"
       id="filter1342"
       x="-0.022498218"
       width="1.0449964"
       y="-0.020770749"
       height="1.0415415">
      <feGaussianBlur
         inkscape:collect="always"
         stdDeviation="1.2103751"
         id="feGaussianBlur1344" />
    </filter>
    <linearGradient
       inkscape:collect="always"
       xlink:href="#linearGradient1399"
       id="linearGradient1401"
       x1="193.76007"
       y1="11.15362"
       x2="217.31299"
       y2="128.7812"
       gradientUnits="userSpaceOnUse"
       gradientTransform="matrix(1.0732035,0,0,1.0732035,-149.6394,13.608154)" />
    <filter
       inkscape:collect="always"
       style="color-interpolation-filters:sRGB"
       id="filter1409"
       x="-0.0094774002"
       width="1.0189548"
       y="-0.0097258133"
       height="1.0194516">
      <feGaussianBlur
         inkscape:collect="always"
         stdDeviation="0.57345633"
         id="feGaussianBlur1411" />
    </filter>
  </defs>
  <sodipodi:namedview
     pagecolor="#ffffff"
     bordercolor="#666666"
     borderopacity="1"
     objecttolerance="10"
     gridtolerance="10"
     guidetolerance="10"
     inkscape:pageopacity="0"
     inkscape:pageshadow="2"
     inkscape:window-width="1920"
     inkscape:window-height="1031"
     id="namedview4"
     showgrid="false"
     inkscape:zoom="0.70710678"
     inkscape:cx="-8.254456"
     inkscape:cy="63.043458"
     inkscape:window-x="0"
     inkscape:window-y="26"
     inkscape:window-maximized="1"
     inkscape:current-layer="svg2" />
  <path
     sodipodi:nodetypes="ccccccc"
     inkscape:connector-curvature="0"
     id="path1351"
     d="M 16.183571,38.653596 135.86906,20.276837 c 2.80624,-0.439258 2.83191,-0.53471 3.61582,3.615819 L 158.93503,142.13315 33.079271,161.58204 14.014081,43.715743 c -0.55115,-3.787698 -0.59393,-4.487634 2.16949,-5.062147 z"
     style="fill:#000000;fill-opacity:0.475;stroke:none;stroke-width:1px;stroke-linecap:butt;stroke-linejoin:miter;stroke-opacity:1;filter:url(#filter1409)"
     transform="matrix(1.0732035,0,0,1.0732035,-6.9033379,-8.929119)" />
  <path
     style="fill:url(#linearGradient1401);fill-opacity:1;stroke:none;stroke-width:1.07320344px;stroke-linecap:butt;stroke-linejoin:miter;stroke-opacity:1"
     d="m 11.01371,32.622654 127.28072,-19.7906 c 3.01167,-0.471414 3.03922,-0.573853 3.88051,3.880509 L 162.35359,140.50083 28.087948,160.67948 8.685405,38.055367 C 8.093909,33.990397 8.047998,33.239223 11.01371,32.622654 Z"
     id="path1288"
     inkscape:connector-curvature="0"
     sodipodi:nodetypes="ccccccc" />
  <path
     sodipodi:nodetypes="ccccc"
     inkscape:connector-curvature="0"
     id="path1324"
     d="M 19.383881,38.0043 131.6261,20.106907 149.01781,132.63887 38.031281,152.54761 Z"
     style="opacity:1;fill:#000000;fill-opacity:0.7125;stroke:none;stroke-width:1px;stroke-linecap:butt;stroke-linejoin:miter;stroke-opacity:1;filter:url(#filter1342)"
     transform="matrix(1.0732035,0,0,1.0732035,-6.9033379,-8.929119)" />
  <path
     style="opacity:1;fill:#000000;fill-opacity:0.22083333;stroke:none;stroke-width:1px;stroke-linecap:butt;stroke-linejoin:miter;stroke-opacity:1;filter:url(#filter1342)"
     d="M 27.883881,38.7543 125.6261,20.856907 147.76781,138.63887 39.781281,156.04761 Z"
     id="path1403"
     inkscape:connector-curvature="0"
     sodipodi:nodetypes="ccccc"
     transform="matrix(1.0732035,0,0,1.0732035,-6.9033379,-8.929119)" />
  <path
     style="opacity:1;fill:#fafafa;fill-opacity:1;stroke:none;stroke-width:1.07320344px;stroke-linecap:butt;stroke-linejoin:miter;stroke-opacity:1"
     d="M 14.72269,23.899818 131.88871,4.692273 151.64504,125.42541 32.009487,145.18173 Z"
     id="path1235"
     inkscape:connector-curvature="0"
     sodipodi:nodetypes="ccccc" />
  <g
     id="g1286"
     transform="matrix(1.0732035,0,0,1.0732035,-12.442258,-22.886699)">
    <path
       sodipodi:nodetypes="ccccc"
       inkscape:connector-curvature="0"
       id="path1242"
       d="m 41.41968,156.60444 1.789739,6.39193 109.301941,-19.43146 0.3835,-5.36921 c -36.6499,4.98241 -74.488967,12.7972 -111.47518,18.40874 z"
       style="fill:url(#linearGradient1250);fill-opacity:1;stroke:none;stroke-width:1px;stroke-linecap:butt;stroke-linejoin:miter;stroke-opacity:1" />
    <path
       style="fill:url(#linearGradient1273);fill-opacity:1;stroke:none;stroke-width:1px;stroke-linecap:butt;stroke-linejoin:miter;stroke-opacity:1"
       d="m 41.41968,156.60444 1.789739,6.39193 109.301941,-19.43146 0.3835,-5.36921 c -36.6499,7.22133 -74.488967,13.87793 -111.47518,18.40874 z"
       id="path1266"
       inkscape:connector-curvature="0"
       sodipodi:nodetypes="ccccc" />
    <path
       sodipodi:nodetypes="ccccc"
       inkscape:connector-curvature="0"
       id="path1279"
       d="m 41.41968,156.60444 1.789739,6.39193 109.301941,-19.43146 0.3835,-5.36921 c -36.6499,7.22133 -74.488967,13.87793 -111.47518,18.40874 z"
       style="fill:url(#linearGradient1281);fill-opacity:1;stroke:none;stroke-width:1px;stroke-linecap:butt;stroke-linejoin:miter;stroke-opacity:1" />
  </g>
  <path
     style="fill:#ffffff;fill-opacity:0.25;stroke:none;stroke-width:1.07320344px;stroke-linecap:butt;stroke-linejoin:miter;stroke-opacity:1"
     d="m 140.05218,12.612507 c -0.35854,0.0051 -0.83155,0.07812 -1.39181,0.165591 l 21.74285,128.015152 1.94937,-0.29345 -20.17706,-123.787321 c -0.63098,-3.340771 -0.80562,-4.118862 -2.12335,-4.099972 z"
     id="path1346"
     inkscape:connector-curvature="0" />
  <path
     style="fill:#1f2427;fill-opacity:1;stroke:none;stroke-width:1.07320344px;stroke-linecap:butt;stroke-linejoin:miter;stroke-opacity:1"
     d="m 28.087948,160.67948 1.314406,1.78955 132.708316,-20.5019 0.24192,-1.46733 z"
     id="path1385"
     inkscape:connector-curvature="0"
     sodipodi:nodetypes="ccccc" />
  <g
     style="fill:#232323;fill-opacity:1;fill-rule:evenodd"
     transform="matrix(4.1339362,-0.59753006,0.52706411,3.478639,-29.14529,2.066407)"
     id="g855">
    <path
       style="fill:#1158de;fill-opacity:0.15209125"
       inkscape:connector-curvature="0"
       d="m 18,31 6,4 6,-4 v -7 l -6,-4 -6,4 z"
       id="path845" />
    <path
       inkscape:connector-curvature="0"
       d="m 24,20 2,-4 6,4 -2,4 z"
       id="path847"
       style="fill:#408af0;fill-opacity:1" />
    <path
       inkscape:connector-curvature="0"
       d="m 24,20 -2,-4 -6,4 2,4 z"
       id="path849"
       style="fill:#408af0;fill-opacity:1" />
    <path
       inkscape:connector-curvature="0"
       d="m 32,28 -2,-4 -6,4 2,4 z"
       id="path851"
       style="fill:#408af0;fill-opacity:1" />
    <path
       inkscape:connector-curvature="0"
       d="m 16,28 2,-4 6,4 -2,4 z"
       id="path853"
       style="fill:#408af0;fill-opacity:1" />
  </g>
</svg>

<svg width="170.67" height="170.67" version="1.1" viewBox="0 0 170.67 170.67" xmlns="http://www.w3.org/2000/svg">
<defs>
<linearGradient id="linearGradient1250" x1="97.103" x2="98.018" y1="147.88" y2="154.38" gradientUnits="userSpaceOnUse"/>
<linearGradient id="linearGradient1273" x1="45.036" x2="96.934" y1="158.36" y2="153.66" gradientUnits="userSpaceOnUse"/>
<linearGradient id="linearGradient1281" x1="137.24" x2="96.934" y1="132.69" y2="153.66" gradientUnits="userSpaceOnUse"/>
<filter id="filter1342" x="-.022498" y="-.020771" width="1.045" height="1.0415" color-interpolation-filters="sRGB">
<feGaussianBlur stdDeviation="1.2103751"/>
</filter>
<linearGradient id="linearGradient1401" x1="193.76" x2="217.31" y1="11.154" y2="128.78" gradientTransform="matrix(1.0732 0 0 1.0732 -149.64 13.608)" gradientUnits="userSpaceOnUse"/>
<filter id="filter1409" x="-.0094774" y="-.0097258" width="1.019" height="1.0195" color-interpolation-filters="sRGB">
<feGaussianBlur stdDeviation="0.57345633"/>
</filter>
</defs>
<path transform="matrix(1.0732 0 0 1.0732 -6.9033 -8.9291)" d="m16.184 38.654 119.69-18.377c2.8062-0.43926 2.8319-0.53471 3.6158 3.6158l19.45 118.24-125.86 19.449-19.065-117.87c-0.55115-3.7877-0.59393-4.4876 2.1695-5.0621z" fill-opacity=".475" filter="url(#filter1409)"/>
<path d="m11.014 32.623 127.28-19.791c3.0117-0.47141 3.0392-0.57385 3.8805 3.8805l20.179 123.79-134.27 20.179-19.403-122.62c-0.5915-4.065-0.63741-4.8161 2.3283-5.4327z" fill="url(#linearGradient1401)"/>
<path transform="matrix(1.0732 0 0 1.0732 -6.9033 -8.9291)" d="m19.384 38.004 112.24-17.897 17.392 112.53-110.99 19.909z" fill-opacity=".7125" filter="url(#filter1342)"/>
<path transform="matrix(1.0732 0 0 1.0732 -6.9033 -8.9291)" d="m27.884 38.754 97.742-17.897 22.142 117.78-107.99 17.409z" fill-opacity=".22083" filter="url(#filter1342)"/>
<path d="m14.723 23.9 117.17-19.208 19.756 120.73-119.64 19.756z" fill="#fafafa"/>
<g transform="matrix(1.0732 0 0 1.0732 -12.442 -22.887)">
<path d="m41.42 156.6 1.7897 6.3919 109.3-19.431 0.3835-5.3692c-36.65 4.9824-74.489 12.797-111.48 18.409z" fill="url(#linearGradient1250)"/>
<path d="m41.42 156.6 1.7897 6.3919 109.3-19.431 0.3835-5.3692c-36.65 7.2213-74.489 13.878-111.48 18.409z" fill="url(#linearGradient1273)"/>
<path d="m41.42 156.6 1.7897 6.3919 109.3-19.431 0.3835-5.3692c-36.65 7.2213-74.489 13.878-111.48 18.409z" fill="url(#linearGradient1281)"/>
</g>
<path d="m140.05 12.613c-0.35854 0.0051-0.83155 0.07812-1.3918 0.16559l21.743 128.02 1.9494-0.29345-20.177-123.79c-0.63098-3.3408-0.80562-4.1189-2.1234-4.1z" fill="#fff" fill-opacity=".25"/>
<path d="m28.088 160.68 1.3144 1.7896 132.71-20.502 0.24192-1.4673z" fill="#1f2427"/>
<g transform="matrix(4.1339 -.59753 .52706 3.4786 -29.145 2.0664)" fill-rule="evenodd">
<path d="m18 31 6 4 6-4v-7l-6-4-6 4z" fill="#1158de" fill-opacity=".15209"/>
<path d="m24 20 2-4 6 4-2 4z" fill="#408af0"/>
<path d="m24 20-2-4-6 4 2 4z" fill="#408af0"/>
<path d="m32 28-2-4-6 4 2 4z" fill="#408af0"/>
<path d="m16 28 2-4 6 4-2 4z" fill="#408af0"/>
</g>
</svg>
